images/logo.svg

<svg width="255" height="69" viewBox="0 0 255 69" fill="none" xmlns="http://www.w3.org/2000/svg">
<g clip-path="url(#clip0_11996_94)">
<path d="M111.419 2C111.419 0.895431 112.314 0 113.419 0H141.419C142.524 0 143.419 0.895431 143.419 2V30C143.419 31.1046 142.524 32 141.419 32H113.419C112.314 32 111.419 31.1046 111.419 30V2Z" fill="#0278FE"/>
<path d="M143.419 6H111.419V8H143.419V6Z" fill="#2A2C2F"/>
<path d="M124.419 6H122.419V32H124.419V6Z" fill="#2A2C2F"/>
<path d="M118.731 68.7442L119.569 65.9601H124.37L125.208 68.7442H129.47L124.669 54.1987H119.271L114.47 68.7442H118.731ZM120.464 63.0055L121.913 58.2044H122.027L123.476 63.0055H120.464Z" fill="white"/>
<path d="M130.871 68.7442H134.82V63.943H136.183L138.74 68.7442H143.03L140.075 63.318C141.624 62.5723 142.547 61.159 142.547 59.1419C142.547 56.0453 140.381 54.1987 137.149 54.1987H130.871V68.7442ZM134.82 60.8749V57.3521H136.212C137.597 57.3521 138.428 57.8919 138.428 59.1419C138.428 60.3848 137.597 60.8749 136.212 60.8749H134.82Z" fill="white"/>
<path d="M143.833 57.3805H148.208V68.7442H152.1V57.3805H156.475V54.1987H143.833V57.3805Z" fill="white"/>
<path d="M171.391 59H175.382C175.077 56.0809 172.428 54 168.99 54C165.07 54 161.888 56.6988 161.888 61.5C161.888 66.1022 164.772 68.9431 169.019 68.9431C172.826 68.9431 175.553 66.6136 175.553 62.6363V60.6193H169.104V63.4318H171.746C171.711 64.696 170.816 65.5056 169.047 65.5056C167.002 65.5056 165.951 64 165.951 61.4431C165.951 58.9218 167.087 57.4375 169.076 57.4375C170.311 57.4375 171.15 58.0056 171.391 59Z" fill="white"/>
<path d="M180.723 68.7442L181.561 65.9601H186.363L187.201 68.7442H191.462L186.661 54.1987H181.263L176.462 68.7442H180.723ZM182.456 63.0055L183.905 58.2044H184.019L185.468 63.0055H182.456Z" fill="white"/>
<path d="M192.863 68.7442H202.693V65.5624H196.812V54.1987H192.863V68.7442Z" fill="white"/>
<path d="M204.289 68.7442H214.118V65.5624H208.238V54.1987H204.289V68.7442Z" fill="white"/>
<path d="M215.715 68.7442H226.169V65.5624H219.663V63.0624H225.658V59.8805H219.663V57.3805H226.197V54.1987H215.715V68.7442Z" fill="white"/>
<path d="M228.156 68.7442H232.105V63.943H233.468L236.025 68.7442H240.315L237.36 63.318C238.909 62.5723 239.832 61.159 239.832 59.1419C239.832 56.0453 237.666 54.1987 234.434 54.1987H228.156V68.7442ZM232.105 60.8749V57.3521H233.497C234.882 57.3521 235.713 57.8919 235.713 59.1419C235.713 60.3848 234.882 60.8749 233.497 60.8749H232.105Z" fill="white"/>
<path d="M240.235 54.1987L245.576 64.1703V68.7442H249.496V64.1703L254.837 54.1987H250.434L247.593 60.1078H247.479L244.639 54.1987H240.235Z" fill="white"/>
<path d="M109.056 54.1987V68.7441H105.76L100.505 61.1021H100.42V68.7441H96.4707V54.1987H99.823L104.993 61.8123H105.107V54.1987H109.056Z" fill="white"/>
<path d="M84.0303 68.7441V54.1987H94.5132V57.3805H87.9791V59.8805H93.9734V63.0623H87.9791V65.5623H94.4848V68.7441H84.0303Z" fill="white"/>
<path d="M69.9023 57.3805V54.1987H82.5443V57.3805H78.1694V68.7441H74.2773V57.3805H69.9023Z" fill="white"/>
<path d="M57.8584 68.7441V54.1987H68.3413V57.3805H61.8073V59.8805H67.8016V63.0623H61.8073V65.5623H68.3129V68.7441H57.8584Z" fill="white"/>
<path d="M46.4321 68.7441V54.1987H50.381V65.5623H56.2617V68.7441H46.4321Z" fill="white"/>
<path d="M33.3071 68.7441V54.1987H39.5855C40.6651 54.1987 41.6097 54.4118 42.4193 54.8379C43.229 55.2641 43.8587 55.863 44.3085 56.6348C44.7583 57.4066 44.9832 58.3086 44.9832 59.3408C44.9832 60.3824 44.7512 61.2844 44.2872 62.0467C43.8279 62.809 43.1816 63.3961 42.3483 63.8081C41.5197 64.22 40.5514 64.426 39.4435 64.426H35.6935V61.3578H38.648C39.112 61.3578 39.5074 61.2773 39.8341 61.1163C40.1655 60.9506 40.4189 60.7162 40.594 60.4132C40.774 60.1102 40.8639 59.7527 40.8639 59.3408C40.8639 58.9241 40.774 58.569 40.594 58.2754C40.4189 57.9771 40.1655 57.7499 39.8341 57.5936C39.5074 57.4326 39.112 57.3521 38.648 57.3521H37.256V68.7441H33.3071Z" fill="white"/>
<path d="M31.4362 54.1987V68.7441H27.4873V54.1987H31.4362Z" fill="white"/>
<path d="M14.1279 68.7441V54.1987H20.4063C21.4859 54.1987 22.4305 54.3952 23.2401 54.7882C24.0498 55.1812 24.6795 55.747 25.1293 56.4857C25.5791 57.2243 25.804 58.1097 25.804 59.1419C25.804 60.1836 25.572 61.0619 25.108 61.7768C24.6487 62.4918 24.0024 63.0316 23.1691 63.3961C22.3405 63.7607 21.3722 63.943 20.2643 63.943H16.5143V60.8748H19.4688C19.9328 60.8748 20.3282 60.818 20.6549 60.7044C20.9863 60.586 21.2397 60.399 21.4148 60.1433C21.5948 59.8876 21.6847 59.5538 21.6847 59.1419C21.6847 58.7252 21.5948 58.3867 21.4148 58.1263C21.2397 57.8611 20.9863 57.667 20.6549 57.5439C20.3282 57.416 19.9328 57.3521 19.4688 57.3521H18.0768V68.7441H14.1279ZM22.6506 62.068L26.287 68.7441H21.9972L18.4461 62.068H22.6506Z" fill="white"/>
<path d="M0 57.3805V54.1987H12.642V57.3805H8.26702V68.7441H4.37499V57.3805H0Z" fill="white"/>
</g>
<defs>
<clipPath id="clip0_11996_94">
<rect width="254.837" height="68.9431" fill="white"/>
</clipPath>
</defs>
</svg>

<svg xmlns="http://www.w3.org/2000/svg" width="255" height="69" fill="none"><g clip-path="url(#a)"><path fill="#0278FE" d="M111.419 2a2 2 0 0 1 2-2h28a2 2 0 0 1 2 2v28a2 2 0 0 1-2 2h-28a2 2 0 0 1-2-2V2Z"/><path fill="#2A2C2F" d="M143.419 6h-32v2h32V6Z"/><path fill="#2A2C2F" d="M124.419 6h-2v26h2V6Z"/><path fill="#fff" d="m118.731 68.744.838-2.784h4.801l.838 2.784h4.262L124.669 54.2h-5.398l-4.801 14.545h4.261Zm1.733-5.739 1.449-4.8h.114l1.449 4.8h-3.012ZM130.871 68.744h3.949v-4.801h1.363l2.557 4.801h4.29l-2.955-5.426c1.549-.746 2.472-2.159 2.472-4.176 0-3.097-2.166-4.943-5.398-4.943h-6.278v14.545Zm3.949-7.87v-3.522h1.392c1.385 0 2.216.54 2.216 1.79 0 1.243-.831 1.733-2.216 1.733h-1.392ZM143.833 57.38h4.375v11.364h3.892V57.38h4.375V54.2h-12.642v3.181ZM171.391 59h3.991c-.305-2.92-2.954-5-6.392-5-3.92 0-7.102 2.699-7.102 7.5 0 4.602 2.884 7.443 7.131 7.443 3.807 0 6.534-2.33 6.534-6.307V60.62h-6.449v2.813h2.642c-.035 1.264-.93 2.074-2.699 2.074-2.045 0-3.096-1.506-3.096-4.063 0-2.521 1.136-4.005 3.125-4.005 1.235 0 2.074.568 2.315 1.562ZM180.723 68.744l.838-2.784h4.802l.838 2.784h4.261L186.661 54.2h-5.398l-4.801 14.545h4.261Zm1.733-5.739 1.449-4.8h.114l1.449 4.8h-3.012ZM192.863 68.744h9.83v-3.182h-5.881V54.2h-3.949v14.545ZM204.289 68.744h9.829v-3.182h-5.88V54.2h-3.949v14.545ZM215.715 68.744h10.454v-3.182h-6.506v-2.5h5.995v-3.181h-5.995v-2.5h6.534v-3.182h-10.482v14.545ZM228.156 68.744h3.949v-4.801h1.363l2.557 4.801h4.29l-2.955-5.426c1.549-.746 2.472-2.159 2.472-4.176 0-3.097-2.166-4.943-5.398-4.943h-6.278v14.545Zm3.949-7.87v-3.522h1.392c1.385 0 2.216.54 2.216 1.79 0 1.243-.831 1.733-2.216 1.733h-1.392ZM240.235 54.199l5.341 9.971v4.574h3.92V64.17l5.341-9.971h-4.403l-2.841 5.909h-.114l-2.84-5.91h-4.404ZM109.056 54.199v14.545h-3.296l-5.255-7.642h-.085v7.642h-3.95V54.2h3.353l5.17 7.613h.114V54.2h3.949ZM84.03 68.744V54.2h10.483v3.181H87.98v2.5h5.994v3.182H87.98v2.5h6.506v3.182H84.03ZM69.902 57.38V54.2h12.642v3.181H78.17v11.364h-3.892V57.38h-4.375ZM57.858 68.744V54.2h10.483v3.181h-6.534v2.5h5.995v3.182h-5.995v2.5h6.506v3.182H57.858ZM46.432 68.744V54.2h3.949v11.363h5.88v3.182h-9.829ZM33.307 68.744V54.2h6.279c1.08 0 2.024.213 2.833.639a4.64 4.64 0 0 1 1.89 1.797c.45.772.674 1.674.674 2.706 0 1.041-.232 1.943-.696 2.706a4.573 4.573 0 0 1-1.939 1.761c-.828.412-1.797.618-2.904.618h-3.75v-3.068h2.954c.464 0 .86-.08 1.186-.242.331-.165.585-.4.76-.703.18-.303.27-.66.27-1.072 0-.417-.09-.772-.27-1.066a1.693 1.693 0 0 0-.76-.681c-.327-.161-.722-.242-1.186-.242h-1.392v11.392h-3.949ZM31.436 54.199v14.545h-3.949V54.2h3.95ZM14.128 68.744V54.2h6.278c1.08 0 2.024.196 2.834.59.81.392 1.44.958 1.89 1.697.45.738.674 1.624.674 2.656 0 1.042-.232 1.92-.696 2.635-.46.715-1.106 1.255-1.939 1.62-.829.364-1.797.546-2.905.546h-3.75v-3.068h2.955c.464 0 .86-.057 1.186-.17a1.5 1.5 0 0 0 .76-.562c.18-.255.27-.59.27-1.001 0-.417-.09-.755-.27-1.016a1.508 1.508 0 0 0-.76-.582c-.327-.128-.722-.192-1.186-.192h-1.392v11.392h-3.95Zm8.523-6.676 3.636 6.676h-4.29l-3.55-6.676h4.204ZM0 57.38V54.2h12.642v3.181H8.267v11.364H4.375V57.38H0Z"/></g><defs><clipPath id="a"><path fill="#fff" d="M0 0h254.837v68.943H0z"/></clipPath></defs></svg>
